svgs/sharp-solid/diagram-project.svg

<svg xmlns="http://www.w3.org/2000/svg" viewBox="0 0 576 512"><!--! Font Awesome Pro 6.6.0 by @fontawesome - https://fontawesome.com License - https://fontawesome.com/license (Commercial License) Copyright 2024 Fonticons, Inc. --><path d="M0 32l192 0 0 64 192 0 0-64 192 0 0 192-192 0 0-64-192 0 0 21.3L272 288l144 0 0 192-192 0 0-149.3L144 224 0 224 0 32z"/></svg>

<svg xmlns="http://www.w3.org/2000/svg" viewBox="0 0 576 512"><!--! Font Awesome Pro 6.4.0 by @fontawesome - https://fontawesome.com License - https://fontawesome.com/license (Commercial License) Copyright 2023 Fonticons, Inc. --><path d="M0 32H192V96H384V32H576V224H384V160H192v21.3L272 288H416V480H224V330.7L144 224H0V32z"/></svg>
